X:20
T:Crab Tree. JJo.020, The
B:J.Johnson Choice Collection Vol 8 1758
Z:vmp.Simon Wilson 2013 www.village-music-project.org.uk
Z:Dance added by John Chambers 2017
M:6/8
L:1/8
%Q:3/8=120
K:G
|:\
G2BA2c | B3GAB | c2ed2c | B3GAB |\
c2ed2c | B2gf2e | fed Ad^c | d3D3 :|
|:\
d2fe2g | f3def | g2fe2g | f3def |\
gfe dcB | edc BAG | FAc BcA | G3G,3 :|
%%begintext align
%% First and 2d Cu. Right hands
%% across .| Left hands back again :|
%% Cross over and half figure :||.
%% Right hands and Left :||:
%%endtext
